build/img/terminal.svg

<svg width="114" height="114" viewBox="0 0 114 114" fill="none" xmlns="http://www.w3.org/2000/svg">
<path fill-rule="evenodd" clip-rule="evenodd" d="M10 0C4.47715 0 0 4.47716 0 10V104C0 109.523 4.47716 114 10 114H104C109.523 114 114 109.523 114 104V10C114 4.47715 109.523 0 104 0H10ZM42.9482 22H71.3816C71.6545 22 71.9247 22.0532 72.1768 22.1565C72.4289 22.2598 72.658 22.4112 72.851 22.6021C73.0439 22.793 73.197 23.0196 73.3014 23.2691C73.4058 23.5185 73.4596 23.7858 73.4596 24.0558V44.9905C73.4596 45.5357 73.2406 46.0586 72.851 46.4442C72.4613 46.8297 71.9327 47.0463 71.3816 47.0463H42.9482C42.397 47.0463 41.8685 46.8297 41.4788 46.4442C41.0891 46.0586 40.8702 45.5357 40.8702 44.9905V24.0558C40.8702 23.5106 41.0891 22.9877 41.4788 22.6021C41.8685 22.2166 42.397 22 42.9482 22ZM44.0564 45.4017H70.3426C70.6274 45.4017 70.9005 45.2897 71.1018 45.0906C71.3031 44.8914 71.4162 44.6212 71.4162 44.3395V24.6725C71.4162 24.3908 71.3031 24.1207 71.1018 23.9215C70.9005 23.7223 70.6274 23.6104 70.3426 23.6104H44.0564C43.917 23.6103 43.779 23.638 43.6506 23.6918C43.5223 23.7455 43.4062 23.8243 43.3092 23.9234C43.2123 24.0225 43.1365 24.1399 43.0863 24.2686C43.0362 24.3973 43.0128 24.5347 43.0174 24.6725V44.3395C43.0128 44.4773 43.0362 44.6147 43.0863 44.7434C43.1365 44.8721 43.2123 44.9895 43.3092 45.0886C43.4062 45.1877 43.5223 45.2665 43.6506 45.3203C43.779 45.3741 43.917 45.4017 44.0564 45.4017ZM71.3816 48.6219H42.9482C42.397 48.6219 41.8685 48.8385 41.4788 49.224C41.0891 49.6096 40.8702 50.1324 40.8702 50.6777V86.6881C40.8702 87.2334 41.0891 87.7563 41.4788 88.1418C41.8685 88.5273 42.397 88.7439 42.9482 88.7439H71.3816C71.9327 88.7439 72.4613 88.5273 72.851 88.1418C73.2406 87.7563 73.4596 87.2334 73.4596 86.6881V50.6777C73.4596 50.1324 73.2406 49.6096 72.851 49.224C72.4613 48.8385 71.9327 48.6219 71.3816 48.6219ZM71.3816 52.8705C71.3816 53.0522 71.3086 53.2265 71.1787 53.3551C71.0488 53.4836 70.8727 53.5558 70.689 53.5558H65.0785C64.8948 53.5558 64.7186 53.4836 64.5887 53.3551C64.4588 53.2265 64.3858 53.0522 64.3858 52.8705V52.6307C64.3858 52.4489 64.4588 52.2746 64.5887 52.1461C64.7186 52.0176 64.8948 51.9454 65.0785 51.9454H70.6543C70.838 51.9454 71.0142 52.0176 71.1441 52.1461C71.274 52.2746 71.347 52.4489 71.347 52.6307L71.3816 52.8705ZM50.602 55.5773C50.602 55.759 50.529 55.9333 50.3991 56.0618C50.2692 56.1904 50.093 56.2626 49.9093 56.2626H44.1257C43.942 56.2626 43.7658 56.1904 43.6359 56.0618C43.506 55.9333 43.433 55.759 43.433 55.5773V52.6307C43.433 52.4489 43.506 52.2746 43.6359 52.1461C43.7658 52.0176 43.942 51.9454 44.1257 51.9454L49.9093 51.9797C50.093 51.9797 50.2692 52.0519 50.3991 52.1804C50.529 52.3089 50.602 52.4832 50.602 52.6649V55.5773ZM49.9093 53.0761C49.9093 53.3159 49.8193 53.4872 49.4383 53.4872H44.5714C44.1905 53.4872 44.0218 53.3159 44.0218 53.0761C44.0218 52.8362 44.1905 52.6649 44.5714 52.6649H49.4383C49.8886 52.7335 49.9093 53.0761 49.9093 53.0761ZM74.2907 89.8755H40.039C39.4652 89.8755 39 90.3357 39 90.9034V90.9719C39 91.5396 39.4652 91.9998 40.039 91.9998H74.2907C74.8645 91.9998 75.3297 91.5396 75.3297 90.9719V90.9034C75.3297 90.3357 74.8645 89.8755 74.2907 89.8755ZM64.1081 28.6132H50.1858C49.6119 28.6132 49.1468 29.0734 49.1468 29.6411V30.3606C49.1468 30.9283 49.6119 31.3885 50.1858 31.3885H64.1081C64.6819 31.3885 65.1471 30.9283 65.1471 30.3606V29.6411C65.1471 29.0734 64.6819 28.6132 64.1081 28.6132ZM50.1858 33.101H64.1081C64.6819 33.101 65.1471 33.5612 65.1471 34.1288V34.8484C65.1471 35.4161 64.6819 35.8763 64.1081 35.8763H50.1858C49.6119 35.8763 49.1468 35.4161 49.1468 34.8484V34.1288C49.1468 33.5612 49.6119 33.101 50.1858 33.101ZM64.1081 37.6246H50.1858C49.6119 37.6246 49.1468 38.0848 49.1468 38.6525V39.372C49.1468 39.9397 49.6119 40.3999 50.1858 40.3999H64.1081C64.6819 40.3999 65.1471 39.9397 65.1471 39.372V38.6525C65.1471 38.0848 64.6819 37.6246 64.1081 37.6246Z" fill="#01194F"/>
</svg>

<svg width="114" height="114" viewBox="0 0 114 114" fill="none" xmlns="http://www.w3.org/2000/svg"><path fill-rule="evenodd" clip-rule="evenodd" d="M10 0C4.477 0 0 4.477 0 10v94c0 5.523 4.477 10 10 10h94c5.523 0 10-4.477 10-10V10c0-5.523-4.477-10-10-10H10zm32.948 22h28.434a2.098 2.098 0 011.469.602 2.054 2.054 0 01.609 1.454V44.99c0 .546-.22 1.069-.609 1.454a2.09 2.09 0 01-1.47.602H42.949a2.09 2.09 0 01-1.47-.602 2.045 2.045 0 01-.608-1.454V24.056c0-.545.22-1.068.609-1.454A2.09 2.09 0 0142.95 22zm1.108 23.402h26.287c.284 0 .557-.112.759-.311.201-.2.314-.47.314-.752V24.674c0-.282-.113-.552-.314-.751a1.08 1.08 0 00-.76-.312H44.057a1.048 1.048 0 00-.747.313 1.028 1.028 0 00-.292.75V44.34a1.02 1.02 0 00.292.749 1.041 1.041 0 00.747.313zm27.326 3.22H42.948a2.09 2.09 0 00-1.47.602 2.047 2.047 0 00-.608 1.454v36.01c0 .545.22 1.068.609 1.454.39.385.918.602 1.47.602h28.433a2.09 2.09 0 001.469-.602c.39-.386.609-.909.609-1.454v-36.01c0-.546-.22-1.068-.609-1.454a2.09 2.09 0 00-1.47-.602zm0 4.248a.682.682 0 01-.203.485.696.696 0 01-.49.2h-5.61a.697.697 0 01-.49-.2.682.682 0 01-.203-.484v-.24c0-.182.073-.356.203-.485.13-.128.306-.2.49-.2h5.575c.184 0 .36.072.49.2.13.129.203.303.203.485l.035.24zm-20.78 2.707a.682.682 0 01-.203.485.696.696 0 01-.49.2h-5.783a.696.696 0 01-.49-.2.682.682 0 01-.203-.485v-2.946c0-.182.073-.356.203-.485.13-.128.306-.2.49-.2l5.783.034c.184 0 .36.072.49.2.13.129.203.303.203.485v2.912zm-.693-2.5c0 .239-.09.41-.47.41H44.57c-.38 0-.55-.171-.55-.41 0-.24.17-.412.55-.412h4.867c.45.069.471.411.471.411zm24.382 36.799H40.039c-.574 0-1.039.46-1.039 1.027v.069c0 .568.465 1.028 1.039 1.028h34.252c.574 0 1.039-.46 1.039-1.028v-.069c0-.567-.465-1.028-1.04-1.028zM64.108 28.613H50.186c-.574 0-1.04.46-1.04 1.028v.72c0 .567.466 1.027 1.04 1.027h13.922c.574 0 1.04-.46 1.04-1.027v-.72c0-.568-.466-1.028-1.04-1.028zm-13.922 4.488h13.922c.574 0 1.04.46 1.04 1.028v.72c0 .567-.466 1.027-1.04 1.027H50.186c-.574 0-1.04-.46-1.04-1.028v-.72c0-.567.466-1.027 1.04-1.027zm13.922 4.524H50.186c-.574 0-1.04.46-1.04 1.028v.719c0 .568.466 1.028 1.04 1.028h13.922c.574 0 1.04-.46 1.04-1.028v-.72c0-.567-.466-1.027-1.04-1.027z" fill="#01194F"/></svg>
